!!!COM: Almeida, Manuel Dos Santos Barreto De Sousa E
!!!CDT: b.1933
!!!OTL: National Anthem, Sao Tome and Principe
!!!ENC: Davis, Matthew J.
!!Vocal Line Only
**kern
*clefG2
*k[b-e-a-]
*E-:
*M4/4
=1-
4B-
=2
4.B-
8e-
4g
8f
8e-
=3
2g
8e-
8r
8.B-
16e-
=4
4g
8.e-
16g
4b-
8.a-
16g
=5
[2f
8f]
8r
8.c
16c
=6
4c
8.a-
16a-
4cc
8.b-
16a-
=7
2cc
8a-
8r
8.cc
16cc
=8
4b-
8.g
16b-
4a-
8.d
16f
=9
4e-
8.ee-
16ee-
8ee-
8r
8r
8B-
=10
4c
4d
4e-
8.e-
16e-
=11
8e-
8b-
8b-
8dd
8cc
84cc
8a-
==12
!Coda Symbol
8.b-
16g
8.g
16e-
8a-
8f
8f
8e-
=13
1g
=14
8r
8b-
8b-
8dd
8cc
4cc
8a-
=15
8.b-
16g
8.g
16e-
8a-
8f
8f
8e-
=16
[2e-
8e-]
8r
8.e-
16g
=17
4.b-
8b-
8.e-
16b-
8cc
8b-
=18
[2g
8g]
8r
8e-
8e-
=19
8a-
4a-
8f
8g
16e-
16r
8e-
8e-
=20
8a-
4a-
8f
8g
16e-
16r
8r
8e-
=21
8f
8e-
8d
8d
3f
3f
3e-
=22
[2e-
=23
8e-]
8r
=24
8.e-
16g
4b-
8.g
16e-
==!|:25
4b-
8.g
16e-
4b-
8.a-
16b-
=26
[2cc
8cc]
8r
8.f
16f
=27
8a-
4a-
8a-
8a-
8a-
8g
8a-
=28
[2b-
8b-]
8r
8.g
16a-
=29
8b-
4b-
8b-
8b-
8b-
8a-
8b-
=30
[2cc
8cc]
8ee-
8dd
8cc
=31
4b-
8.g
16e-
4b-
8.f
16d
=32
!First Ending
[2e-
=33
8e-]
8r
8.e-
16g
4b-
8.g
16e-
==:|!34
!Second Ending
[2e-
=35
8e-]
8b-
8b-
8dd
8cc
4cc
8a
D.S. al Fine
==
*-
